!!key: tele-40-09-Fan-All-03-Flute
!!!COM: Telemann, Georg Philipp
!!!CDT: 1681/03/14-1767/06/25
!!!CBL: Magdeburg
!!!CDL: Hamburg
!!!CNT: German
!!!TWV: 40:9
!!!TWV-genre: 40
!!!TWV-work: 9
!!!OPR: 12 Fantasias for transverse flute without bass
!!!OTL: Fantasia 8
!!!OMD: Allegro
!!!OMV: 3
!!!ODT: ca. 1732–1733
!!!AST: Late Baroque
!!!AGN: Fantasia
!!!AMT: Simple triple
!!!AIN: Transverse flute
**kern
*ICww
*Iflt
*clefG2
*k[f#]
*e:
*M3/4
=
8b
4cc
8a
4dd
=
8g
4a
8f#
4b
=
8e
4ee
16dd
16cc
8b
8a
=
8g
[8e
16e]
16f#
16g
16a
8b
8e
=
8b
4cc
8a
4dd
=
8g
4a
8f#
4b
!!LO:LB:g=original
=
8e
4ee
16dd
16cc
8b
8a
=
8g
8gg
4g
4r
=:||:
8b
[8g
16g]
16a
16b
16cc#X
8dd
16ee
16cc#
=
8d
[8a
16a]
16b
16cc#X
16dd
8ee
8a
=
8ff#
4bb
4aa
[8gg
=
8gg]
16ff#
16ee
8ff#
16dd
16cc#X
8dd
8d
!!LO:LB:g=original
=
8cc#X
4ff#
8ee
8cc#
8ee
=
8a#X
4ff#
4ee
16dd
16cc#X
=
8dd
16cc#X
16dd
8b
8cc#
8f#
8a#X
=
8b
8bb
4b
8r
8an
=
8g#X
16dd
16cc#X
16dd
16cc#X
8dd
8e
8ee
=
8a
16cc#X
16b
8cc#
8a
8cc#
8ee
!!LO:LB:g=original
=
8a#X
16ee
16dd#X
16ee
16dd#X
8ee
8f#
8ee
=
8b
16dd#X
16cc#X
8dd#
8b
8dd#
8ff#
=
8b
4ccn
8a
4ddn
=
8g
4a
8f#
4b
=
8e
4ee
16b
16a
8g
8f#
=
8e
8ee
4e
4r
==:|
*-
!!!RTL1: G. PH. Telemann: Twelve Fantasias for Flute without Bass TWV 40:2-13
!!!RPN1: D'Arcangelo, Rita
!!!RMM1: Da Vinci Classics
!!!RC#1: DV-C00440
!!!RRD1: 2022
!!!RLC1: Andreaskirche, Berlin, Germany
!!!RDT1: 16 September 2020, 17 September 2020
!!!RT#1: 8
!!!RTL2: The Telemann Files: 12 Fantasies for Solo Flute
!!!RPN2: Choi, Jasmine
!!!RMM2: Austrian Gramophone
!!!RC#2: AG0001
!!!RRD2: February 2015
!!!RLC2: LeFrak Hall, Queens, USA
!!!RDT2: 9 June 2014, 10 June 2014
!!!RT#2: 8
!!!RTL3: Georg Philipp Telemann: Twelve Fantasies for Flute
!!!RPN3: Robertello, Thomas
!!!RMM3: Delos
!!!RC#3: DE3396
!!!RRD3: 1 June 2009
!!!RLC3: Clear Creek Recording, Keene, California
!!!RDT3: Unknown
!!!RT#3: 8
